icons/luminary.svg

<svg width="32" height="32" viewBox="0 0 32 32" fill="none" xmlns="http://www.w3.org/2000/svg">
<path d="M3.36667 28.6333C0.913333 26.18 0 22.18 0 16C0 9.82 0.913333 5.82 3.36667 3.36667C5.82 0.913333 9.82 0 16 0C22.18 0 26.18 0.913333 28.6333 3.36667C31.0867 5.82 32 9.82 32 16C32 22.18 31.0867 26.18 28.6333 28.6333C26.18 31.0867 22.18 32 16 32C9.82 32 5.82 31.0867 3.36667 28.6333Z" fill="#111C32"/>
<path d="M15.8 6.29999C13.2539 6.29999 10.8121 7.31141 9.01177 9.11176C7.21142 10.9121 6.2 13.3539 6.2 15.9C6.2 18.4461 7.21142 20.8879 9.01177 22.6882C10.8121 24.4886 13.2539 25.5 15.8 25.5H25.4V15.9C25.4 13.3539 24.3886 10.9121 22.5882 9.11176C20.7879 7.31141 18.3461 6.29999 15.8 6.29999M15.182 12.3608V22.4461L12.0234 21.0823V10.997L14.4576 9.99166L17.6145 11.3431L15.182 12.3608ZM17.6153 15.3998L20.8769 16.7652L17.6153 18.148V15.3998Z" fill="#FFE500"/>
</svg>

<svg xmlns="http://www.w3.org/2000/svg" width="32" height="32" fill="none" viewBox="0 0 32 32">
  <path fill="#111C32" d="M3.367 28.633C.913 26.18 0 22.18 0 16 0 9.82.913 5.82 3.367 3.367 5.82.913 9.82 0 16 0c6.18 0 10.18.913 12.633 3.367C31.087 5.82 32 9.82 32 16c0 6.18-.913 10.18-3.367 12.633C26.18 31.087 22.18 32 16 32c-6.18 0-10.18-.913-12.633-3.367Z"/>
  <path fill="#FFE500" d="M15.8 6.3a9.6 9.6 0 1 0 0 19.2h9.6v-9.6a9.6 9.6 0 0 0-9.6-9.6m-.618 6.06v10.086l-3.159-1.364V10.997l2.435-1.005 3.156 1.351-2.432 1.018Zm2.433 3.04 3.262 1.365-3.262 1.383V15.4Z"/>
</svg>
